X: 1
T: the Kerry Bar
O: trad Ireland
R: polka
Z: 2013 John Chambers <jc:trillian.mit.edu>
S: printed page from Debby Knight at RJ practice
M: C|
L: 1/4
K: A
|:\
"A"c2 BA | ce e2 | ce fe | cB "E7"B2 |\
"A"c2 BA | ce "D"a>f | "A"ec "(E)"Ac | "E7"BA "A"A2 :|
|:\
"D"f2 ed | fa a>f | "A"ec AB | cB "E7"B2 |\
"D"f2 ed | fa a>f |1 "A"ec Ac | "E7"BA "A"A2 :|2 "E7"ge- ed | Bc d!d.C.!B |] "A"HA2 |]
